;Generated from endstop-holder-z.stl 5d06c63a88301e266edbb3dbd9c58610cb560622
;Generated with Cura_SteamEngine 14.12.1
M109 T0 S214.0
T0

;Basic settings: Layer height: 0.2 Walls: 1 Fill: 20
;Print time: ?print_time?
;Filament used: ?filament_amount?m ?filament_weight?g
;Filament cost: ?filament_cost?
;M190 S?print_bed_temperature? ;Uncomment to add your own bed temperature line
;M109 S214 ;Uncomment to add your own temperature line
G21        ;metric values
G90        ;absolute positioning
M82        ;set extruder to absolute mode
M107       ;start with the fan off
G28 X0 Y0  ;move X/Y to min endstops
G28 Z0     ;move Z to min endstops
G1 Z15.0 F7200 ;move the platform down 15mm
G92 E0                  ;zero the extruded length
G1 F200 E3              ;extrude 3mm of feed stock
G92 E0                  ;zero the extruded length again
G1 F7200
;Put printing message on LCD screen
M117 Printing...

;Layer count: 50
;LAYER:0
M107
G0 F7200 X76.325 Y88.063 Z0.300
;TYPE:SKIRT
G1 F1620 X124.860 Y88.063 E5.72061
G1 X122.173 Y96.393 E6.75224
G1 X121.358 Y98.837 E7.05590
G1 X108.303 Y98.837 E8.59464
G1 X107.353 Y98.376 E8.71910
G1 X107.317 Y98.363 E8.72361
G1 X107.265 Y98.350 E8.72993
G1 X107.225 Y98.344 E8.73469
G1 X107.167 Y98.341 E8.74154
G1 X107.101 Y98.345 E8.74933
G1 X107.047 Y98.353 E8.75577
G1 X106.995 Y98.366 E8.76208
G1 X106.959 Y98.379 E8.76659
G1 X106.894 Y98.410 E8.77508
G1 X106.850 Y98.436 E8.78111
G1 X106.805 Y98.470 E8.78775
G1 X106.765 Y98.506 E8.79410
G1 X106.729 Y98.546 E8.80044
G1 X106.699 Y98.587 E8.80643
G1 X106.670 Y98.636 E8.81314
G1 X106.645 Y98.687 E8.81983
G1 X106.625 Y98.744 E8.82695
G1 X106.613 Y98.792 E8.83279
G1 X106.606 Y98.836 E8.83804
G1 X106.603 Y98.900 E8.84559
G1 X106.606 Y98.953 E8.85185
G1 X106.614 Y99.012 E8.85886
G1 X106.627 Y99.063 E8.86507
G1 X106.644 Y99.111 E8.87107
G1 X106.670 Y99.164 E8.87803
G1 X106.699 Y99.213 E8.88474
G1 X106.729 Y99.253 E8.89063
G1 X106.762 Y99.290 E8.89647
G1 X106.807 Y99.331 E8.90365
G1 X106.854 Y99.366 E8.91056
G1 X106.897 Y99.391 E8.91642
G1 X106.950 Y99.417 E8.92338
G1 X106.998 Y99.434 E8.92938
G1 X107.049 Y99.447 E8.93558
G1 X107.108 Y99.455 E8.94260
G1 X107.162 Y99.458 E8.94897
G1 X107.215 Y99.455 E8.95523
G1 X107.274 Y99.447 E8.96225
G1 X107.325 Y99.434 E8.96845
G1 X107.354 Y99.423 E8.97211
G1 X108.298 Y98.962 E9.09593
G1 X120.915 Y98.962 E10.58304
G1 X123.381 Y104.904 E11.34132
G1 X123.380 Y104.904 E11.34144
G1 X125.400 Y109.737 E11.95883
G1 X121.167 Y109.737 E12.45776
G1 X121.142 Y111.937 E12.71708
G1 X108.328 Y111.937 E14.22741
G1 X108.327 Y109.737 E14.48671
G1 X107.159 Y109.737 E14.62438
G1 X106.105 Y109.690 E14.74874
G1 X105.047 Y109.532 E14.87482
G1 X104.014 Y109.274 E15.00032
G1 X103.013 Y108.915 E15.12566
G1 X102.051 Y108.461 E15.25104
G1 X101.138 Y107.913 E15.37654
G1 X100.284 Y107.280 E15.50184
G1 X99.496 Y106.565 E15.62725
G1 X98.781 Y105.777 E15.75266
G1 X98.148 Y104.923 E15.87796
G1 X97.600 Y104.010 E16.00346
G1 X97.146 Y103.048 E16.12884
G1 X96.787 Y102.047 E16.25418
G1 X96.529 Y101.014 E16.37968
G1 X96.372 Y99.962 E16.50505
G1 X96.323 Y98.937 E16.62600
G1 X76.325 Y98.937 E18.98307
G1 X76.325 Y88.063 E20.26474
G1 F3000 E18.76474
G0 F7200 X81.074 Y92.812
;TYPE:WALL-INNER
G1 F3000 E20.26474
G1 F1620 X118.338 Y92.812 E24.65689
G1 X117.926 Y94.088 E24.81493
G1 X109.395 Y94.088 E25.82044
G1 X109.195 Y93.991 E25.84664
G1 X108.705 Y93.815 E25.90801
G1 X108.190 Y93.686 E25.97058
G1 X107.681 Y93.612 E26.03121
G1 X107.153 Y93.586 E26.09352
G1 X106.633 Y93.613 E26.15489
G1 X106.116 Y93.689 E26.21648
G1 X105.608 Y93.818 E26.27826
G1 X105.118 Y93.995 E26.33966
G1 X104.649 Y94.219 E26.40092
G1 X104.202 Y94.487 E26.46235
G1 X103.784 Y94.798 E26.52376
G1 X103.397 Y95.149 E26.58534
G1 X103.048 Y95.537 E26.64685
G1 X102.738 Y95.956 E26.70829
G1 X102.471 Y96.405 E26.76986
G1 X102.250 Y96.874 E26.83097
G1 X102.077 Y97.356 E26.89133
G1 X101.948 Y97.871 E26.95390
G1 X101.874 Y98.380 E27.01453
G1 X101.848 Y98.900 E27.07589
G1 X101.874 Y99.419 E27.13714
G1 X101.950 Y99.936 E27.19873
G1 X102.077 Y100.443 E27.26034
G1 X102.252 Y100.933 E27.32166
G1 X102.476 Y101.404 E27.38314
G1 X102.743 Y101.851 E27.44451
G1 X103.053 Y102.270 E27.50594
G1 X103.405 Y102.658 E27.56769
G1 X103.791 Y103.007 E27.62902
G1 X104.209 Y103.317 E27.69036
G1 X104.657 Y103.585 E27.75189
G1 X105.128 Y103.809 E27.81336
G1 X105.618 Y103.984 E27.87469
G1 X106.125 Y104.111 E27.93629
G1 X106.642 Y104.187 E27.99789
G1 X107.162 Y104.213 E28.05925
G1 X107.681 Y104.187 E28.12050
G1 X108.198 Y104.111 E28.18209
G1 X108.705 Y103.984 E28.24370
G1 X109.203 Y103.806 E28.30603
G1 X109.397 Y103.711 E28.33149
G1 X117.744 Y103.711 E29.31532
G1 X118.274 Y104.988 E29.47828
G1 X116.433 Y104.988 E29.69527
G1 X116.433 Y107.188 E29.95457
G1 X113.074 Y107.188 E30.35048
G1 X113.074 Y106.402 E30.44313
G1 X113.090 Y104.988 E30.60980
G1 X107.273 Y104.988 E31.29542
G1 X106.562 Y104.956 E31.37931
G1 X105.973 Y104.868 E31.44950
G1 X105.394 Y104.724 E31.51983
G1 X104.837 Y104.524 E31.58958
G1 X104.288 Y104.265 E31.66113
G1 X103.779 Y103.959 E31.73113
G1 X103.300 Y103.605 E31.80133
G1 X102.858 Y103.203 E31.87175
G1 X102.456 Y102.761 E31.94217
G1 X102.102 Y102.282 E32.01238
G1 X101.796 Y101.773 E32.08238
G1 X101.537 Y101.224 E32.15393
G1 X101.337 Y100.667 E32.22368
G1 X101.193 Y100.088 E32.29400
G1 X101.103 Y99.489 E32.36540
G1 X101.076 Y98.910 E32.43372
G1 X101.105 Y98.301 E32.50558
G1 X101.190 Y97.721 E32.57467
G1 X101.332 Y97.152 E32.64379
G1 X101.537 Y96.576 E32.71585
G1 X101.761 Y96.099 E32.77797
G1 X102.717 Y94.188 E33.02982
G1 X81.074 Y94.188 E35.58079
G1 X81.074 Y92.812 E35.74297
G0 F7200 X80.199 Y91.937
;TYPE:WALL-OUTER
G1 F1620 X119.540 Y91.937 E40.37992
G1 X118.564 Y94.963 E40.75467
G1 X109.193 Y94.963 E41.85919
G1 X108.855 Y94.799 E41.90347
G1 X108.450 Y94.653 E41.95421
G1 X108.020 Y94.546 E42.00644
G1 X107.596 Y94.484 E42.05695
G1 X107.154 Y94.462 E42.10911
G1 X106.719 Y94.485 E42.16045
G1 X106.288 Y94.548 E42.21179
G1 X105.865 Y94.656 E42.26325
G1 X105.455 Y94.803 E42.31459
G1 X105.063 Y94.991 E42.36583
G1 X104.689 Y95.214 E42.41715
G1 X104.341 Y95.474 E42.46835
G1 X104.018 Y95.767 E42.51975
G1 X103.726 Y96.091 E42.57116
G1 X103.468 Y96.441 E42.62241
G1 X103.245 Y96.816 E42.67384
G1 X103.060 Y97.209 E42.72503
G1 X102.915 Y97.611 E42.77540
G1 X102.808 Y98.041 E42.82763
G1 X102.746 Y98.465 E42.87814
G1 X102.724 Y98.900 E42.92947
G1 X102.746 Y99.334 E42.98069
G1 X102.809 Y99.765 E43.03203
G1 X102.915 Y100.188 E43.08343
G1 X103.062 Y100.597 E43.13466
G1 X103.248 Y100.991 E43.18601
G1 X103.472 Y101.365 E43.23740
G1 X103.731 Y101.714 E43.28862
G1 X104.024 Y102.038 E43.34011
G1 X104.347 Y102.329 E43.39135
G1 X104.696 Y102.589 E43.44265
G1 X105.070 Y102.813 E43.49403
G1 X105.464 Y102.999 E43.54538
G1 X105.873 Y103.146 E43.59661
G1 X106.296 Y103.252 E43.64801
G1 X106.727 Y103.315 E43.69935
G1 X107.162 Y103.337 E43.75069
G1 X107.596 Y103.315 E43.80190
G1 X108.027 Y103.252 E43.85324
G1 X108.450 Y103.146 E43.90464
G1 X108.862 Y102.998 E43.95624
G1 X109.195 Y102.836 E43.99989
G1 X118.328 Y102.836 E45.07636
G1 X119.585 Y105.863 E45.46267
G1 X117.308 Y105.863 E45.73105
G1 X117.308 Y108.063 E45.99036
G1 X112.200 Y108.063 E46.59242
G1 X112.199 Y106.392 E46.78937
G1 X112.205 Y105.863 E46.85172
G1 X107.256 Y105.863 E47.43504
G1 X106.471 Y105.828 E47.52766
G1 X105.807 Y105.729 E47.60679
G1 X105.138 Y105.562 E47.68806
G1 X104.495 Y105.331 E47.76859
G1 X103.886 Y105.044 E47.84794
G1 X103.289 Y104.685 E47.93005
G1 X102.750 Y104.286 E48.00909
G1 X102.239 Y103.822 E48.09044
G1 X101.775 Y103.311 E48.17180
G1 X101.376 Y102.772 E48.25084
G1 X101.017 Y102.175 E48.33295
G1 X100.730 Y101.566 E48.41230
G1 X100.499 Y100.923 E48.49283
G1 X100.332 Y100.254 E48.57410
G1 X100.232 Y99.580 E48.65441
G1 X100.200 Y98.910 E48.73347
G1 X100.233 Y98.210 E48.81607
G1 X100.330 Y97.557 E48.89388
G1 X100.493 Y96.898 E48.97390
G1 X100.728 Y96.241 E49.05614
G1 X100.979 Y95.707 E49.12568
G1 X101.301 Y95.063 E49.21055
G1 X80.199 Y95.063 E51.69775
G1 X80.199 Y91.937 E52.06620
G0 F7200 X80.737 Y92.385
G0 X81.379 Y93.135
;TYPE:FILL
G1 F1620 X82.361 Y93.499 E52.19034
G1 X83.599 Y93.499 E52.31742
G1 X84.836 Y93.499 E52.44455
G1 X86.074 Y93.499 E52.57163
G1 X87.311 Y93.499 E52.69876
G1 X88.548 Y93.499 E52.82573
G1 X89.786 Y93.499 E52.95281
G1 X91.023 Y93.499 E53.07995
G1 X92.261 Y93.499 E53.20702
G1 X93.498 Y93.499 E53.33416
G1 X94.736 Y93.499 E53.46123
G1 X95.973 Y93.499 E53.58837
G1 X97.211 Y93.499 E53.71544
G1 X98.448 Y93.499 E53.84258
G1 X99.685 Y93.499 E53.96972
G1 X100.923 Y93.499 E54.09679
G1 X102.160 Y93.499 E54.22393
G1 X103.177 Y93.897 E54.35103
G1 X103.407 Y94.746 E54.44060
G1 X102.782 Y94.739 E54.51428
G0 F7200 X103.635 Y93.118
G1 F1620 X104.676 Y93.540 E54.65484
G1 X105.726 Y93.352 E54.73301
G1 X106.235 Y93.243 E54.79436
G0 F7200 X108.585 Y93.118
G1 F1620 X109.459 Y93.374 E54.87975
G1 X110.773 Y93.450 E54.99038
G1 X112.010 Y93.450 E55.10102
G1 X113.248 Y93.450 E55.21158
G1 X114.485 Y93.450 E55.32222
G1 X115.723 Y93.450 E55.43279
G1 X116.960 Y93.450 E55.54343
G1 X117.753 Y93.624 E55.63912
G0 F7200 X80.778 Y94.484
G0 X102.180 Y94.520
G0 X102.272 Y102.912
G0 X112.790 Y105.285
G0 X117.009 Y104.016
G1 F1620 X117.055 Y104.682 E55.75009
G1 X115.771 Y104.016 E55.92058
G0 F7200 X114.534 Y104.016
G1 F1620 X116.126 Y105.609 E56.18603
G0 F7200 X116.126 Y106.846
G1 F1620 X113.296 Y104.016 E56.65775
G0 F7200 X112.724 Y104.682
G1 F1620 X111.773 Y104.349 E56.76864
G1 X110.535 Y104.349 E56.87954
G1 X109.298 Y104.349 E56.99035
G1 X108.645 Y104.315 E57.06742
G0 F7200 X113.391 Y105.349
G1 F1620 X114.924 Y106.882 E57.32295
G0 F7200 X113.687 Y106.882
G1 F1620 X113.378 Y106.573 E57.37445
;LAYER:1
M106 S255
G0 F7200 X112.396 Y106.479 Z0.500
;TYPE:WALL-INNER
G1 F2100 X112.401 Y105.550 E57.41617
G1 X107.316 Y105.550 E57.64449
G1 X106.513 Y105.517 E57.68058
G1 X105.866 Y105.421 E57.70995
G1 X105.227 Y105.261 E57.73952
G1 X104.615 Y105.041 E57.76872
G1 X104.029 Y104.765 E57.79781
G1 X103.473 Y104.431 E57.82693
G1 X102.942 Y104.038 E57.85659
G1 X102.460 Y103.601 E57.88581
G1 X102.023 Y103.119 E57.91502
G1 X101.630 Y102.588 E57.94468
G1 X101.296 Y102.032 E57.97381
G1 X101.020 Y101.446 E58.00289
G1 X100.800 Y100.834 E58.03209
G1 X100.640 Y100.195 E58.06167
G1 X100.544 Y99.548 E58.09104
G1 X100.513 Y98.900 E58.12017
G1 X100.543 Y98.254 E58.14921
G1 X100.637 Y97.625 E58.17776
G1 X100.790 Y97.001 E58.20661
G1 X101.011 Y96.377 E58.23633
G1 X101.259 Y95.847 E58.26261
G1 X101.784 Y94.750 E58.31721
G1 X80.512 Y94.750 E59.27235
G1 X80.512 Y92.250 E59.38461
G1 X119.110 Y92.250 E61.11770
G1 X118.335 Y94.650 E61.23094
G1 X109.266 Y94.650 E61.63815
G1 X108.967 Y94.505 E61.65307
G1 X108.524 Y94.350 E61.67415
G1 X108.073 Y94.237 E61.69502
G1 X107.626 Y94.172 E61.71531
G1 X107.144 Y94.149 E61.73697
G1 X106.678 Y94.174 E61.75793
G1 X106.217 Y94.243 E61.77886
G1 X105.765 Y94.360 E61.79982
G1 X105.327 Y94.517 E61.82071
G1 X104.907 Y94.719 E61.84164
G1 X104.521 Y94.950 E61.86184
G1 X104.135 Y95.238 E61.88346
G1 X103.791 Y95.552 E61.90437
G1 X103.488 Y95.887 E61.92466
G1 X103.202 Y96.276 E61.94634
G1 X102.964 Y96.677 E61.96727
G1 X102.766 Y97.098 E61.98816
G1 X102.612 Y97.537 E62.00905
G1 X102.499 Y97.988 E62.02993
G1 X102.434 Y98.434 E62.05017
G1 X102.411 Y98.900 E62.07112
G1 X102.434 Y99.365 E62.09202
G1 X102.501 Y99.827 E62.11298
G1 X102.616 Y100.279 E62.13392
G1 X102.772 Y100.717 E62.15480
G1 X102.972 Y101.139 E62.17577
G1 X103.211 Y101.539 E62.19669
G1 X103.488 Y101.913 E62.21759
G1 X103.803 Y102.259 E62.23860
G1 X104.148 Y102.572 E62.25952
G1 X104.522 Y102.849 E62.28041
G1 X104.922 Y103.089 E62.30136
G1 X105.344 Y103.289 E62.32233
G1 X105.782 Y103.445 E62.34320
G1 X106.234 Y103.560 E62.36415
G1 X106.696 Y103.627 E62.38511
G1 X107.162 Y103.650 E62.40606
G1 X107.627 Y103.627 E62.42696
G1 X108.089 Y103.560 E62.44792
G1 X108.541 Y103.445 E62.46886
G1 X108.979 Y103.289 E62.48974
G1 X109.274 Y103.149 E62.50440
G1 X118.119 Y103.149 E62.90155
G1 X119.115 Y105.550 E63.01827
G1 X117.093 Y105.550 E63.10906
G1 X117.093 Y107.750 E63.20784
G1 X112.397 Y107.750 E63.41870
G1 X112.396 Y106.479 E63.47577
G0 F7200 X111.896 Y106.476
;TYPE:WALL-OUTER
G1 F2100 X111.898 Y106.050 E63.49490
G1 X107.319 Y106.050 E63.70050
G1 X106.455 Y106.014 E63.73933
G1 X105.775 Y105.913 E63.77019
G1 X105.076 Y105.739 E63.80254
G1 X104.430 Y105.507 E63.83336
G1 X103.789 Y105.204 E63.86519
G1 X103.192 Y104.846 E63.89645
G1 X102.623 Y104.425 E63.92823
G1 X102.106 Y103.955 E63.95960
G1 X101.636 Y103.438 E63.99098
G1 X101.215 Y102.869 E64.02276
G1 X100.857 Y102.272 E64.05401
G1 X100.554 Y101.631 E64.08585
G1 X100.322 Y100.985 E64.11667
G1 X100.147 Y100.282 E64.14920
G1 X100.047 Y99.606 E64.17988
G1 X100.013 Y98.900 E64.21162
G1 X100.045 Y98.216 E64.24236
G1 X100.045 Y98.203 E64.24295
G1 X100.143 Y97.539 E64.27309
G1 X100.312 Y96.854 E64.30477
G1 X100.551 Y96.180 E64.33688
G1 X100.808 Y95.631 E64.36409
G1 X100.991 Y95.250 E64.38307
G1 X80.012 Y95.250 E65.32505
G1 X80.012 Y91.750 E65.48221
G1 X119.796 Y91.750 E67.26856
G1 X118.699 Y95.150 E67.42897
G1 X109.150 Y95.150 E67.85773
G1 X108.774 Y94.968 E67.87649
G1 X108.380 Y94.829 E67.89525
G1 X107.976 Y94.728 E67.91395
G1 X107.578 Y94.670 E67.93201
G1 X107.146 Y94.650 E67.95142
G1 X106.729 Y94.672 E67.97017
G1 X106.316 Y94.734 E67.98893
G1 X105.912 Y94.838 E68.00766
G1 X105.520 Y94.979 E68.02636
G1 X105.144 Y95.160 E68.04510
G1 X104.800 Y95.366 E68.06310
G1 X104.454 Y95.624 E68.08248
G1 X104.146 Y95.905 E68.10120
G1 X103.875 Y96.204 E68.11932
G1 X103.619 Y96.552 E68.13872
G1 X103.229 Y97.288 E68.17612
G1 X103.091 Y97.681 E68.19482
G1 X102.990 Y98.085 E68.21352
G1 X102.932 Y98.483 E68.23158
G1 X102.912 Y98.900 E68.25033
G1 X102.932 Y99.316 E68.26903
G1 X102.992 Y99.729 E68.28777
G1 X103.095 Y100.134 E68.30653
G1 X103.235 Y100.526 E68.32522
G1 X103.413 Y100.903 E68.34394
G1 X103.628 Y101.261 E68.36269
G1 X103.875 Y101.596 E68.38138
G1 X104.156 Y101.905 E68.40013
G1 X104.465 Y102.185 E68.41886
G1 X104.800 Y102.433 E68.43757
G1 X105.158 Y102.648 E68.45632
G1 X105.535 Y102.826 E68.47504
G1 X105.927 Y102.966 E68.49373
G1 X106.332 Y103.069 E68.51249
G1 X106.745 Y103.129 E68.53123
G1 X107.162 Y103.149 E68.54998
G1 X107.578 Y103.129 E68.56868
G1 X107.991 Y103.069 E68.58742
G1 X108.396 Y102.966 E68.60618
G1 X108.788 Y102.826 E68.62487
G1 X109.162 Y102.649 E68.64345
G1 X118.453 Y102.649 E69.06063
G1 X119.864 Y106.050 E69.22596
G1 X117.593 Y106.050 E69.32793
G1 X117.593 Y108.250 E69.42671
G1 X111.897 Y108.250 E69.68247
G1 X111.896 Y106.476 E69.76212
G0 F7200 X112.574 Y106.274
;TYPE:FILL
G1 F2220 X115.524 Y103.324 E69.94945
G0 F7200 X114.817 Y103.324
G1 F2220 X112.576 Y105.566 E70.09178
G0 F7200 X112.060 Y105.375
G1 F2220 X114.110 Y103.324 E70.22199
G0 F7200 X113.403 Y103.324
G1 F2220 X111.353 Y105.375 E70.35220
G0 F7200 X110.645 Y105.375
G1 F2220 X112.696 Y103.324 E70.48243
G0 F7200 X111.989 Y103.324
G1 F2220 X109.938 Y105.375 E70.61267
G0 F7200 X109.231 Y105.375
G1 F2220 X111.282 Y103.324 E70.74291
G0 F7200 X110.575 Y103.324
G1 F2220 X108.524 Y105.375 E70.87315
G0 F7200 X107.817 Y105.375
G1 F2220 X109.868 Y103.324 E71.00339
G0 F7200 X109.029 Y103.456
G1 F2220 X107.118 Y105.366 E71.12470
G0 F7200 X106.447 Y105.331
G1 F2220 X108.033 Y103.744 E71.22545
G0 F7200 X107.251 Y103.820
G1 F2220 X105.837 Y105.233 E71.31520
G0 F7200 X105.271 Y105.092
G1 F2220 X106.577 Y103.786 E71.39813
G0 F7200 X105.981 Y103.675
G1 F2220 X104.752 Y104.904 E71.47617
G0 F7200 X104.267 Y104.682
G1 F2220 X105.441 Y103.508 E71.55072
G0 F7200 X104.948 Y103.294
G1 F2220 X103.812 Y104.430 E71.62286
G0 F7200 X103.386 Y104.149
G1 F2220 X104.497 Y103.038 E71.69341
G0 F7200 X104.085 Y102.743
G1 F2220 X102.985 Y103.842 E71.76323
G0 F7200 X102.616 Y103.505
G1 F2220 X103.709 Y102.411 E71.83266
G0 F7200 X103.369 Y102.044
G1 F2220 X102.276 Y103.137 E71.90207
G0 F7200 X101.964 Y102.743
G1 F2220 X103.067 Y101.640 E71.97211
G0 F7200 X102.804 Y101.196
G1 F2220 X101.677 Y102.323 E72.04367
G0 F7200 X101.417 Y101.875
G1 F2220 X102.583 Y100.709 E72.11771
G0 F7200 X102.408 Y100.177
G1 F2220 X101.191 Y101.394 E72.19499
